X:11174
T:Morgiana in Ireland. JC.067
M:6/8
L:1/8
Q:120
S:John Clare,Poet,Helpston. (1793-1864)
R:Jig
O:England
A:Northamptonshire
N:
Z:P Headford
K:D
A2Ad2d|edef2B|A2Ad2e|f2g fdB|A2Ad2d|ede f2b|!
bag fge|d2e fdB|a2a agf|b2c'd'3|aba agf|b2c' d'af|!
aba agf|bc'b bc'd'|abg fge|d2e fdB|dcd f<az2|ede g<bz2|!
dcdf2g|f2g fdB|dcd f<az2|g<bz2f<az2|b<d'z2f<az2|d2e fdB|]
W:Should be transposed from D to E, but abc.tlz wouldn't do it for me. C
GP.


